assets/collections/switch/logo_mono.svg

<svg enable-background="new 0 0 3839 841.8" version="1.1" viewBox="0 0 3839 841.8" xml:space="preserve" xmlns="http://www.w3.org/2000/svg">
		<path d="m215.80078 0.19921875c-119.19988 0-215.80078 96.60090025-215.80078 215.8007812v410.09961c0 119.19988 96.60051 215.80078 215.90039 215.80078h184c3.4 0 6.19922-2.69961 6.19922-6.09961v-0.10156-829.3984388c-0.1-3.2999966-2.79883-6.10156245-6.29883-6.10156245h-184zm279.89844 0c-3 0-5.4 2.40078415-5.5 5.30078125v0.0996094 830.0996106c0.1 3.5 2.80117 6.20117 6.20117 6.20117h129.59961c119.19988 0 215.90039-96.6009 215.90039-215.80078v-410.09961c0-119.199881-96.70051-215.8007812-215.90039-215.8007812h-130.30078zm3218.20118 10.10156225c-68.8999 0-125 56.198897-125 125.298829 0 69.19993 56.1001 125.40039 125 125.40039 68.9999 0 125.0996-56.20046 125.0996-125.40039 0-69.099932-56.0997-125.298829-125.0996-125.298829zm-2646.4004 7.898438v234.800781h47.5l0.0996-157 116.7012 157h46.2988v-234.800781h-47.5996v154.201171l-115.5996-154.201171h-47.4004zm387.5 0v234.800781h52.1992v-234.800781h-52.1992zm229.4004 0v234.800781h47.5996v-157l116.5996 157h46.4004v-234.800781h-47.6992v154.201171l-115.5-154.201171h-47.4004zm377.7988 0v49.800781h75v185h50.6016v-185h73.2988v-49.800781h-198.9004zm553.3008 0-182.5 0.101562v234.699219l182.5-0.09961v-43.40039h-134.9004v-55h124.7012v-42.5h-124.7012v-50.699219h134.9004v-43.101562zm194.5996 0v234.800781h47.5996v-157l116.6016 157h46.3984v-234.800781h-47.6992v154.201171l-115.5-154.201171h-47.4004zm409.2012 0v234.800781h97.0996c66.5999 0 120.7988-52.60046 120.7988-117.40039-0.1-64.799936-54.2985-117.400391-120.8984-117.400391h-97zm494.5996 44.300781c40.3 0.1 72.9 32.79965 73 73.09961 0 40.29996-32.7 72.99961-73 73.09961-40.3-0.1-72.9004-32.79965-72.9004-73.09961 0-40.19996 32.8004-73.09961 72.9004-73.09961zm-446.4004 5h51.1992c37.6 0.1 68 30.499647 68 68.09961 0 37.49996-30.4 68-68 68h-51.1992v-136.09961zm-3051.59961 0.5h122.29883v706.09961h-0.09961-122.19922c-39.29996 0.1-76.99964-15.49886-104.59961-43.29883-27.899971-27.69997-43.500389-65.4016-43.400389-104.60156v-410.19922c0-39.49996 15.398856-76.69964 43.298829-104.59961 27.69997-27.899971 65.40121-43.50039 104.70117-43.40039zm-5.70117 105.59961c-43.69996-0.1-79.09922 35.29965-79.19922 79.09961 0 43.69996 35.39926 79.20117 79.19922 79.20117 43.79995 0 79.20117-35.40122 79.20117-79.20117 0-43.69996-35.39965-79.09961-79.09961-79.09961h-0.10156zm2923.70118 185c-130.3999 0-236.5 106.00052-236.5 236.40039s106.1001 236.40039 236.5 236.40039c79.2999 0 152.0989-38.99967 196.2988-104.59961l-72.0996-62.70117c-24.9 42.09996-71.5997 68.80078-121.5996 68.80078-77.4999 0-140.5-61.90047-140.5-137.90039 0-76.09992 63.0001-138 140.5-138 49.9999 0 96.6996 26.70082 121.5996 68.80078l72.0996-62.60156c-43.7999-65.49994-117.4989-104.69961-196.2988-104.59961zm-1884.5996 8.09961c-95.6999 0-197.5 46.70126-197.5 133.20117 0 70.09993 49.4001 105.99885 176.5 127.79883 89.4999 15.49998 138.7984 23.90043 137.3984 62.40039-0.8 21.19998-17.1997 56.70117-118.0996 56.70117-81.2999 0-138.3988-29.4004-158.2988-41.40039l-41.9004 75.69922c22.4 11.79999 97.2989 47 193.7988 47 140.9999 0 215.4004-48.79931 215.4004-141.19922 0.1-53.39995-17.899-109.20003-205.2988-140-63.9-10.49999-105.2012-22.4012-105.2012-52.20117 0-34.49997 46.0012-47.69922 107.7012-47.69922 57.3999 0 115.0996 21.9004 135.5996 30.40039l31.5-76.59961c-22.4-8.89999-92.9997-34.10156-171.5996-34.10156zm257.8984 6.30078 125.4004 443h106.4004l82.5-291.80078 82.0996 291.80078h106.9004l126-443h-96.3008l-85.5996 321.5-93.7988-321.5h-78.6016l-93.5 320.19922-85.0996-320.19922h-96.4004zm739.3008 0v443h98.5996v-443h-98.5996zm206.8008 0v94h141.5v349h95.2988v-349h138.4004v-94h-375.1992zm978.1992 0v443h91.5996v-176.69922h206.8008v176.69922h91.6992v-443h-91.6992v174.69922h-206.8008v-174.69922h-91.5996zm-2774.69922 5c46.99995 1 84.29844 39.80044 83.39844 86.90039-0.9 45.69995-37.69848 82.50039-83.39844 83.40039-46.99995-1-84.30039-39.80044-83.40039-86.90039 0.9-45.69995 37.70044-82.50039 83.40039-83.40039z"/>
	
</svg>

<?xml version="1.0" encoding="utf-8"?>
<!-- Generator: Adobe Illustrator 25.0.0, SVG Export Plug-In . SVG Version: 6.00 Build 0)  -->
<svg version="1.1" id="Layer_1" xmlns="http://www.w3.org/2000/svg" xmlns:xlink="http://www.w3.org/1999/xlink" x="0px" y="0px"
	 viewBox="0 0 3839 841.8" style="enable-background:new 0 0 3839 841.8;" xml:space="preserve">
<style type="text/css">
	.st0{fill:#FFFFFF;}
	.st1{fill:#E60012;}
	.st2{fill-rule:evenodd;clip-rule:evenodd;fill:#E60012;}
	.st3{filter:url(#Adobe_OpacityMaskFilter);}
	.st4{fill-rule:evenodd;clip-rule:evenodd;fill:#FFFFFF;}
	.st5{mask:url(#b_4_);fill-rule:evenodd;clip-rule:evenodd;fill:#FFFFFF;}
	.st6{fill-rule:evenodd;clip-rule:evenodd;}
	.st7{filter:url(#Adobe_OpacityMaskFilter_1_);}
	.st8{mask:url(#b_1_);fill-rule:evenodd;clip-rule:evenodd;fill:#FFFFFF;}
	.st9{filter:url(#Adobe_OpacityMaskFilter_2_);}
	.st10{mask:url(#b_2_);fill-rule:evenodd;clip-rule:evenodd;}
	.st11{filter:url(#Adobe_OpacityMaskFilter_3_);}
	.st12{mask:url(#b_7_);fill-rule:evenodd;clip-rule:evenodd;}
	.st13{filter:url(#Adobe_OpacityMaskFilter_4_);}
	.st14{mask:url(#b_8_);fill-rule:evenodd;clip-rule:evenodd;fill:#FFFFFF;}
	.st15{filter:url(#Adobe_OpacityMaskFilter_5_);}
	.st16{mask:url(#b_9_);fill-rule:evenodd;clip-rule:evenodd;fill:#FFFFFF;}
	.st17{filter:url(#Adobe_OpacityMaskFilter_6_);}
	.st18{mask:url(#b_3_);fill-rule:evenodd;clip-rule:evenodd;fill:#E60012;}
	.st19{filter:url(#Adobe_OpacityMaskFilter_7_);}
	.st20{mask:url(#b_5_);fill-rule:evenodd;clip-rule:evenodd;fill:#FFFFFF;}
	.st21{filter:url(#Adobe_OpacityMaskFilter_8_);}
	.st22{mask:url(#b_6_);fill-rule:evenodd;clip-rule:evenodd;}
	.st23{filter:url(#Adobe_OpacityMaskFilter_9_);}
	.st24{mask:url(#b_12_);fill-rule:evenodd;clip-rule:evenodd;fill:#E60012;}
	.st25{filter:url(#Adobe_OpacityMaskFilter_10_);}
	.st26{mask:url(#b_10_);fill-rule:evenodd;clip-rule:evenodd;fill:#FFFFFF;}
	.st27{filter:url(#Adobe_OpacityMaskFilter_11_);}
	.st28{mask:url(#b_11_);fill-rule:evenodd;clip-rule:evenodd;}
</style>
<g>
	<g transform="translate(0 -.187)">
		<defs>
			<filter id="Adobe_OpacityMaskFilter" filterUnits="userSpaceOnUse" x="0" y="0.2" width="841.8" height="841.8">
				<feColorMatrix  type="matrix" values="1 0 0 0 0  0 1 0 0 0  0 0 1 0 0  0 0 0 1 0"/>
			</filter>
		</defs>
		<mask maskUnits="userSpaceOnUse" x="0" y="0.2" width="841.8" height="841.8" id="b_11_">
			<g class="st3">
				<path id="a_11_" class="st4" d="M841.8,841.9H0V0.2h841.8V841.9z"/>
			</g>
		</mask>
		<path class="st28" d="M131,252.7c0,43.7,35.4,79.2,79.2,79.2s79.2-35.4,79.2-79.2c0-43.7-35.4-79.1-79.1-79.1c0,0,0,0-0.1,0
			C166.5,173.5,131.1,208.9,131,252.7C131,252.7,131,252.7,131,252.7z M338.1,774.1H215.9c-39.3,0.1-77-15.5-104.6-43.3
			c-27.9-27.7-43.5-65.4-43.4-104.6V216c0-39.5,15.4-76.7,43.3-104.6c27.7-27.9,65.4-43.5,104.7-43.4h122.3V774.1z M399.8,0.2h-184
			C96.6,0.2,0,96.8,0,216v410.1c0,119.2,96.6,215.8,215.9,215.8h184c3.4,0,6.2-2.7,6.2-6.1c0,0,0,0,0-0.1V6.3
			C406,3,403.3,0.2,399.8,0.2C399.8,0.2,399.8,0.2,399.8,0.2z M656.8,378c47,1,84.3,39.8,83.4,86.9c-0.9,45.7-37.7,82.5-83.4,83.4
			c-47-1-84.3-39.8-83.4-86.9C574.3,415.7,611.1,378.9,656.8,378z M496.4,841.9H626c119.2,0,215.9-96.6,215.9-215.8V216
			c0-119.2-96.7-215.8-215.9-215.8H495.7c-3,0-5.4,2.4-5.5,5.3c0,0,0,0.1,0,0.1v830.1C490.3,839.2,493,841.9,496.4,841.9
			L496.4,841.9z"/>
	</g>
	<path class="st6" d="M3318.7,203.6h-51.2V67.5h51.2c37.6,0.1,68,30.5,68,68.1C3386.7,173.1,3356.3,203.6,3318.7,203.6z
		 M3316.3,18.2h-97V253h97.1c66.6,0,120.8-52.6,120.8-117.4C3437.1,70.8,3382.9,18.2,3316.3,18.2L3316.3,18.2z M3136.5,457
		c50,0,96.7,26.7,121.6,68.8l72.1-62.6c-43.8-65.5-117.5-104.7-196.3-104.6c-130.4,0-236.5,106-236.5,236.4s106.1,236.4,236.5,236.4
		c79.3,0,152.1-39,196.3-104.6l-72.1-62.7c-24.9,42.1-71.6,68.8-121.6,68.8c-77.5,0-140.5-61.9-140.5-137.9
		C2996,518.9,3059,457,3136.5,457L3136.5,457z M2453.3,467h141.5V816h95.3V467h138.4v-94h-375.2L2453.3,467L2453.3,467z
		 M3729.9,547.7h-206.8V373h-91.6v443h91.6V639.3h206.8v176.7h91.7V373h-91.7V547.7z M3713.9,208.7c-40.3-0.1-72.9-32.8-72.9-73.1
		c0-40.2,32.8-73.1,72.9-73.1c40.3,0.1,72.9,32.8,73,73.1C3786.9,175.9,3754.2,208.6,3713.9,208.7z M3713.9,10.3
		c-68.9,0-125,56.2-125,125.3c0,69.2,56.1,125.4,125,125.4c69,0,125.1-56.2,125.1-125.4C3839,66.5,3782.9,10.3,3713.9,10.3
		L3713.9,10.3z M2615.5,209.5h-134.9v-55h124.7V112h-124.7V61.3h134.9V18.2l-182.5,0.1V253l182.5-0.1L2615.5,209.5L2615.5,209.5z
		 M3020.7,253V18.2H2973v154.2L2857.5,18.2h-47.4V253h47.6V96l116.6,157L3020.7,253L3020.7,253z M1455,253h52.2V18.2H1455V253
		L1455,253z M1251.3,546.9c-63.9-10.5-105.2-22.4-105.2-52.2c0-34.5,46-47.7,107.7-47.7c57.4,0,115.1,21.9,135.6,30.4l31.5-76.6
		c-22.4-8.9-93-34.1-171.6-34.1c-95.7,0-197.5,46.7-197.5,133.2c0,70.1,49.4,106,176.5,127.8c89.5,15.5,138.8,23.9,137.4,62.4
		c-0.8,21.2-17.2,56.7-118.1,56.7c-81.3,0-138.4-29.4-158.3-41.4l-41.9,75.7c22.4,11.8,97.3,47,193.8,47
		c141,0,215.4-48.8,215.4-141.2C1456.7,633.5,1438.7,577.7,1251.3,546.9L1251.3,546.9z M1954.6,694.5L1860.8,373h-78.6l-93.5,320.2
		L1603.6,373h-96.4l125.4,443H1739l82.5-291.8l82.1,291.8h106.9l126-443h-96.3L1954.6,694.5L1954.6,694.5z M1732,96l116.6,157h46.4
		V18.2h-47.7v154.2L1731.8,18.2h-47.4V253h47.6V96z M2246.5,816h98.6V373h-98.6V816z M2261.1,18.2h-198.9V68h75V253h50.6V68h73.3
		L2261.1,18.2L2261.1,18.2z M1115.1,96l116.7,157h46.3V18.2h-47.6v154.2L1114.9,18.2h-47.4V253h47.5L1115.1,96L1115.1,96z"/>
</g>
</svg>
